svg/device/guitar_fill.svg

<?xml version="1.0" encoding="UTF-8"?>
<svg width="24px" height="24px" viewBox="0 0 24 24" version="1.1" xmlns="http://www.w3.org/2000/svg" xmlns:xlink="http://www.w3.org/1999/xlink">
    <title>guitar_fill</title>
    <g id="Icon" stroke="none" stroke-width="1" fill="none" fill-rule="evenodd">
        <g id="Device" transform="translate(-528.000000, -432.000000)">
            <g id="guitar_fill" transform="translate(528.000000, 432.000000)">
                <path d="M24,0 L24,24 L0,24 L0,0 L24,0 Z M12.5935,23.2578 L12.5819,23.2595 L12.5109,23.295 L12.4919,23.2987 L12.4767,23.295 L12.4057,23.2595 C12.3958,23.2564 12.387,23.259 12.3821,23.2649 L12.378,23.2758 L12.3609,23.7031 L12.3659,23.7235 L12.3769,23.7357 L12.4805,23.8097 L12.4953,23.8136 L12.5071,23.8097 L12.6107,23.7357 L12.6233,23.7197 L12.6267,23.7031 L12.6096,23.2758 C12.6076,23.2657 12.601,23.2593 12.5935,23.2578 Z M12.8584,23.1453 L12.8445,23.1473 L12.6598,23.2397 L12.6499,23.2499 L12.6472,23.2611 L12.6651,23.6906 L12.6699,23.7034 L12.6784,23.7105 L12.8793,23.8032 C12.8914,23.8069 12.9022,23.803 12.9078,23.7952 L12.9118,23.7812 L12.8777,23.1665 C12.8753,23.1546 12.8674,23.147 12.8584,23.1453 Z M12.143,23.1473 C12.1332,23.1424 12.1222,23.1453 12.1156,23.1526 L12.1099,23.1665 L12.0758,23.7812 C12.0751,23.7927 12.0828,23.8019 12.0926,23.8046 L12.1083,23.8032 L12.3092,23.7105 L12.3186,23.7024 L12.3225,23.6906 L12.3404,23.2611 L12.3372,23.2485 L12.3278,23.2397 L12.143,23.1473 Z" id="MingCute" fill-rule="nonzero"></path>
                <path d="M16.8482,2.39451 C17.1381091,2.09461909 17.5798364,2.00912488 17.956327,2.16843307 L18.0671,2.2236 L18.9331,2.7236 C19.2943727,2.93218182 19.4844058,3.33993719 19.4211556,3.74381578 L19.3945,3.86466 L18.8276,5.84671 C18.7429,6.14277 18.5265,6.3833 18.241,6.49874 C17.9962857,6.59769714 17.7242408,6.59528857 17.4835569,6.49562017 L17.3661,6.4377 L15.8323,9.09436 C16.7515,9.8154 17.2005,10.5872 17.5063,11.3067 C17.7287,11.8299 17.9204,12.5125 17.8121,13.2458 C17.7069583,13.9578667 17.3353646,14.6079208 16.6717463,15.1341111 L16.4835,15.2745 C16.0510714,15.5780143 16.0237531,15.834949 16.1248382,16.2570848 L16.2992784,16.9071171 C16.4715602,17.5969477 16.63795,18.6073625 16.3318,19.7642 C16.0557,20.8074 15.3892,21.6293 14.6323,22.1754 C13.887,22.7132 12.9658,23.0461 12.0939,23.0013 C10.734,22.9314 9.34524,22.5915 7.50016,21.5263 C5.6551,20.461 4.66616,19.4282 3.92563,18.2854 C3.45091,17.5527 3.27865,16.5884 3.37168,15.6741 C3.46615,14.7455 3.84474,13.7574 4.61011,12.9967 C5.393605,12.217975 6.27034,11.8503812 6.93822297,11.6445062 L7.25336154,11.5538906 L7.25336154,11.5538906 L7.5253,11.4833 C8.04916462,11.3502846 8.32396036,11.2507556 8.40593964,10.7533029 L8.42245,10.6204 C8.50679,9.66867 8.89967,8.94321 9.51506,8.45548 C10.0959,7.99511 10.783,7.81976 11.3472,7.75076 C12.058625,7.66376833 12.8682785,7.65917431 13.8331593,7.99438161 L14.1002,8.09442 L15.6341,5.4377 C15.3674,5.28374 15.1865,5.01549 15.1438,4.71054 C15.1071143,4.44915429 15.1754163,4.1857849 15.3305067,3.97645959 L15.4152,3.87656 L16.8482,2.39451 Z M10.0671,16.0801 C9.58878,15.8039 8.97719,15.9678 8.70104,16.4461 C8.44462429,16.8902357 8.56761357,17.4493087 8.96943746,17.7479714 L9.06707,17.8121 L9.9331,18.3121 C10.4114,18.5883 11.023,18.4244 11.2991,17.9461 C11.5555714,17.5019643 11.4325689,16.9428913 11.0307348,16.6442286 L10.9331,16.5801 L10.0671,16.0801 Z M10.701,12.982 C10.2818,13.7081 10.5276,14.6255 11.2451,15.0397 C11.9203,15.4295353 12.7726626,15.2347339 13.2159255,14.6122828 L13.2991,14.482 C13.7133,13.7645 13.4675,12.8472 12.7501,12.4329 C12.0326,12.0187 11.1153,12.2645 10.701,12.982 Z" id="形状" fill="#09244B"></path>
            </g>
        </g>
    </g>
</svg>

<svg xmlns="http://www.w3.org/2000/svg" width="24" height="24"><g fill="none" fill-rule="evenodd"><path d="M24 0v24H0V0h24ZM12.594 23.258l-.012.002-.071.035-.02.004-.014-.004-.071-.036c-.01-.003-.019 0-.024.006l-.004.01-.017.428.005.02.01.013.104.074.015.004.012-.004.104-.074.012-.016.004-.017-.017-.427c-.002-.01-.009-.017-.016-.018Zm.264-.113-.014.002-.184.093-.01.01-.003.011.018.43.005.012.008.008.201.092c.012.004.023 0 .029-.008l.004-.014-.034-.614c-.003-.012-.01-.02-.02-.022Zm-.715.002a.023.023 0 0 0-.027.006l-.006.014-.034.614c0 .012.007.02.017.024l.015-.002.201-.093.01-.008.003-.011.018-.43-.003-.012-.01-.01-.184-.092Z"/><path fill="#09244B" d="M16.848 2.395a1 1 0 0 1 1.108-.227l.111.056.866.5a1 1 0 0 1 .488 1.02l-.026.12-.567 1.983a1 1 0 0 1-1.344.649l-.118-.058-1.534 2.656c.92.721 1.369 1.493 1.674 2.213.223.523.414 1.205.306 1.939-.105.712-.477 1.362-1.14 1.888l-.189.14c-.432.304-.46.56-.358.983l.174.65c.173.69.339 1.7.033 2.857-.276 1.043-.943 1.865-1.7 2.411-.745.538-1.666.871-2.538.826-1.36-.07-2.749-.41-4.594-1.475-1.845-1.065-2.834-2.098-3.574-3.24-.475-.733-.647-1.698-.554-2.612.094-.928.473-1.917 1.238-2.677.784-.779 1.66-1.147 2.328-1.352l.315-.091.272-.07c.524-.134.799-.233.88-.73l.017-.134c.085-.951.478-1.677 1.093-2.165.58-.46 1.268-.635 1.832-.704.712-.087 1.521-.092 2.486.243l.267.1 1.534-2.656a1 1 0 0 1-.303-1.462l.084-.1 1.433-1.481Zm-6.78 13.685a1 1 0 0 0-1.099 1.668l.098.064.866.5a1 1 0 0 0 1.098-1.668l-.098-.064-.866-.5Zm.633-3.098a1.5 1.5 0 0 0 2.515 1.63l.083-.13a1.5 1.5 0 0 0-2.598-1.5Z"/></g></svg>
